X: 24788
T: Maggie Cameron
R: strathspey
M: 4/4
K: Amixolydian
f|e2 c>A c<ec>A|e>cA>c e2 f2|e2 c>A c<ec>A|d>BG>B d2 f2|
e2 c>A c<ec>A|e>cA>c e>A a/g/f|e>Ac>A c<ec>A|d>BG>B d2 f2||
e<ac>a e>ac>a|g/f/e a>c e2 f2|e<ac>a e>fg>e|d/c/B g>B d2 f2|
e<ac>a e>ac>a|g/f/e a>c e2 e/f/g|a/g/f g/f/e f/e/d e/d/c|d/c/B g>B d2 f-||

